X:254
T:Pride of Cloontia (reel), The 
B:CRE2.195 (PÃÂÃÂÃÂÃÂ©arla na gCluainte)
F:file ID: cre.2/254pride_c
N:Sounds a little like "Navvy on the Line" (Bothy Band
version).
Q:180
L:1/8
M:4/4
R:reel
K:G
GA|B2eg dBGB|AcBG AEED|B2eg dBGB|AcBG A2GA|
B2 eg dBGB|AcBG AGEf|g2 fg edBA|GBAF G2:|
|:Bd|gdBG DGBd|(3efg dB GA (3Bcd|gdBG DGBd|\
(3efg dB A2 Bd|
gdBG DGBd|(3efg dB GABd|g2 fg edBA|GBAF G2:|

%%%

